docs/.gitbook/assets/icon-windsock-16@light.svg

<svg width="32" height="32" viewBox="0 0 16 16" fill="none" xmlns="http://www.w3.org/2000/svg">
<rect x="0" y="0" width="16" height="16" fill="#fff"/>
<path fill-rule="evenodd" clip-rule="evenodd" d="M2.75 1C3.16421 1 3.5 1.33579 3.5 1.75V5.35047L6 3.9219V3C6 2.77112 6.10451 2.55477 6.2838 2.4125C6.46309 2.27023 6.69753 2.21761 6.92042 2.26962L13.6477 3.83931C14.4397 4.02411 15 4.73022 15 5.54353V7.45647C15 8.26978 14.4397 8.97589 13.6477 9.16069L6.92042 10.7304C6.69753 10.7824 6.46309 10.7298 6.2838 10.5875C6.10451 10.4452 6 10.2289 6 10V9.0781L3.5 7.64953V14.25C3.5 14.6642 3.16421 15 2.75 15C2.33579 15 2 14.6642 2 14.25V1.75C2 1.33579 2.33579 1 2.75 1ZM4.51167 6.5L6 7.35047V5.64953L4.51167 6.5ZM7.5 3.94515L9.75 4.47015V8.52985L7.5 9.05485V3.94515ZM13.3068 7.69993L11.25 8.17985V4.82015L13.3068 5.30007C13.42 5.32647 13.5 5.42734 13.5 5.54353V7.45647C13.5 7.57266 13.42 7.67353 13.3068 7.69993Z" fill="#000"/>
</svg>

<svg xmlns="http://www.w3.org/2000/svg" width="32" height="32" fill="none" viewBox="0 0 16 16"><path fill="#fff" d="M0 0h16v16H0z"/><path fill="#000" fill-rule="evenodd" d="M2.75 1a.75.75 0 0 1 .75.75v3.6L6 3.922V3a.75.75 0 0 1 .92-.73l6.728 1.57A1.75 1.75 0 0 1 15 5.543v1.912c0 .814-.56 1.52-1.352 1.705L6.92 10.73A.75.75 0 0 1 6 10v-.922L3.5 7.65v6.6a.75.75 0 0 1-1.5 0V1.75A.75.75 0 0 1 2.75 1m1.762 5.5L6 7.35v-1.7zM7.5 3.945l2.25.525v4.06l-2.25.525zM13.307 7.7l-2.057.48V4.82l2.057.48a.25.25 0 0 1 .193.244v1.912a.25.25 0 0 1-.193.244" clip-rule="evenodd"/></svg>
